images/pressure-high-alt.svg

<svg xmlns="http://www.w3.org/2000/svg" viewBox="0 0 64 64"><defs><linearGradient id="a" x1="21.91" x2="42.09" y1="14.52" y2="49.48" gradientUnits="userSpaceOnUse"><stop offset="0" stop-color="#f87171"/><stop offset=".45" stop-color="#f87171"/><stop offset="1" stop-color="#dc2626"/></linearGradient></defs><path fill="url(#a)" stroke="#ef4444" stroke-miterlimit="10" stroke-width=".5" d="M38 14H26a12 12 0 00-12 12v12a12 12 0 0012 12h12a12 12 0 0012-12V26a12 12 0 00-12-12zm2 27h-4.17v-7.76h-7.66V41H24V23h4.17v6.91h7.66V23H40z"/></svg>

<svg xmlns="http://www.w3.org/2000/svg" viewBox="0 0 64 64">
	<defs>
		<linearGradient id="a" x1="21.91" y1="14.52" x2="42.09" y2="49.48" gradientUnits="userSpaceOnUse">
			<stop offset="0" stop-color="#f87171"/>
			<stop offset="0.45" stop-color="#f87171"/>
			<stop offset="1" stop-color="#dc2626"/>
		</linearGradient>
	</defs>
	<path d="M38,14H26A12,12,0,0,0,14,26V38A12,12,0,0,0,26,50H38A12,12,0,0,0,50,38V26A12,12,0,0,0,38,14Zm2,27H35.83V33.24H28.17V41H24V23h4.17v6.91h7.66V23H40Z" stroke="#ef4444" stroke-miterlimit="10" stroke-width="0.5" fill="url(#a)"/>
</svg>
